src/16/places/user-trash.svg

<svg width="16.25" xmlns="http://www.w3.org/2000/svg" height="16.25" viewBox="0 0 13 13">
<g style="fill:#e0b389" transform="matrix(1.18125 0 0 1.18125 -1.17815 -1.17585)">
<path d="m 6.058594,10.992188 0,-2.542969 -2.417969,0 0.421875,-0.726563 0.773438,0 -1.121094,-1.9375 -2.453125,0 L 1.796875,6.09375 1.082031,7.328125 3,10.640625 l 0.183594,0.3125 0.042968,0.07813 z"/>
<path d="m 10.464844,5.035156 -2.207032,1.269532 1.207032,2.089843 -0.839844,0 -0.386719,-0.667969 -1.121093,1.933594 1.226562,2.117188 0,-0.613282 1.425781,0 1.917969,-3.3125 0.183594,-0.316406 0.04687,-0.078125 z"/>
<path d="M 3.085938,3.683594 5.292969,4.953125 6.5,2.867188 6.921875,3.59375 6.535156,4.261719 l 2.238282,0 L 10,2.144531 9.46875,2.449219 8.753906,1.21875 l -4.289062,0 z"/>
</g>
</svg>

<svg width="16.25" xmlns="http://www.w3.org/2000/svg" height="16.25" viewBox="0 0 13 13" xmlns:xlink="http://www.w3.org/1999/xlink">
<g style="fill:#409bbf">
<path d="M 6.058594 10.992188 L 6.058594 8.449219 L 3.640625 8.449219 L 4.0625 7.722656 L 4.835938 7.722656 L 3.714844 5.785156 L 1.261719 5.785156 L 1.796875 6.09375 L 1.082031 7.328125 L 3 10.640625 L 3.183594 10.953125 L 3.226562 11.03125 Z "/>
<path d="M 10.464844 5.035156 L 8.257812 6.304688 L 9.464844 8.394531 L 8.625 8.394531 L 8.238281 7.726562 L 7.117188 9.660156 L 8.34375 11.777344 L 8.34375 11.164062 L 9.769531 11.164062 L 11.6875 7.851562 L 11.871094 7.535156 L 11.917969 7.457031 Z "/>
<path d="M 3.085938 3.683594 L 5.292969 4.953125 L 6.5 2.867188 L 6.921875 3.59375 L 6.535156 4.261719 L 8.773438 4.261719 L 10 2.144531 L 9.46875 2.449219 L 8.753906 1.21875 L 4.464844 1.21875 Z "/>
</g>
</svg>
